images/Logo-1.svg

<svg fill="none" height="44" viewBox="0 0 155 44" width="155" xmlns="http://www.w3.org/2000/svg" xmlns:xlink="http://www.w3.org/1999/xlink"><clipPath id="a"><path d="m0 0h39.2425v43.6364h-39.2425z"/></clipPath><g fill="#bbc3cf"><path d="m52.4815 14.5484c0 7.8545 8.4436 8.9149 8.4436 14.5701 0 1.9637-.864 2.6706-2.2385 2.6706-1.3746 0-2.2386-.7069-2.2386-2.6706v-1.9636h-4.0844v1.6887c0 4.3986 2.1993 6.912 6.4408 6.912 4.2414 0 6.4407-2.5134 6.4407-6.912 0-7.8545-8.4436-8.9149-8.4436-14.5702 0-1.9636.7854-2.7098 2.16-2.7098 1.3745 0 2.16.7462 2.16 2.7098v1.139h4.0843v-.864c0-4.3986-2.16-6.91205-6.3622-6.91205-4.2021 0-6.3621 2.51345-6.3621 6.91205z"/><path d="m71.4968 35.4414h4.32v-9.1112l5.4589-18.37967h-4.1236l-3.2989 12.52797-3.2989-12.52797h-4.5164l5.4589 18.37967z"/><path d="m88.9922 7.95053h-6.0087v27.49087h3.7702v-19.44l3.2203 19.44h4.0844l2.9847-19.7149v19.7149h4.0839v-27.49087h-6.0082l-2.9455 19.51857z"/><path d="m103.013 11.8778h4.517v23.5636h4.32v-23.5636h4.516v-3.92727h-13.353z"/><path d="m131.7 35.4414c-.432-1.021-.471-2.0029-.471-3.3381v-4.2415c0-2.8669-.707-4.9484-2.867-5.8516 1.924-.9033 2.827-2.7491 2.827-5.5768v-2.16c0-4.2414-1.924-6.32287-6.401-6.32287h-6.519v27.49087h4.32v-11.1927h1.492c1.964 0 2.828.9426 2.828 3.4953v4.32c0 2.2385.157 2.6705.392 3.3774zm-7.03-23.5636c1.532 0 2.199.864 2.199 2.8276v2.7099c0 2.1992-.982 2.9061-2.592 2.9061h-1.688v-8.4436z"/><path d="m134.07 35.4414h4.32v-27.49087h-4.32z"/><path d="m149.992 25.1913v3.9272c0 1.9637-.864 2.6706-2.239 2.6706-1.374 0-2.238-.7069-2.238-2.6706v-14.8451c0-1.9636.864-2.7098 2.238-2.7098 1.375 0 2.239.7462 2.239 2.7098v2.9455h4.084v-2.6705c0-4.3986-2.199-6.91205-6.44-6.91205-4.242 0-6.441 2.51345-6.441 6.91205v14.2952c0 4.3986 2.199 6.912 6.441 6.912 4.241 0 6.44-2.5134 6.44-6.912v-3.6523z"/></g><g clip-path="url(#a)"><path clip-rule="evenodd" d="m14.8435 13.8351-2.3606 4.0812-2.2462-3.8963 2.3489-4.08115h16.407l3.4836-6.04249h-23.37725l-4.60673 7.99064c3.45579 5.97 6.90628 11.9401 10.35128 17.9102h6.9674c-1.75-3.0291-3.4989-6.0577-5.2469-9.0858l-.4844-.8383h15.968l6.8675 11.8913-6.8675 11.8721h-25.19474l-6.7970501-11.9866 3.4132201-5.928 2.26078 3.8947-1.22289 2.1331 4.60672 7.9906h20.67456l4.6214-7.9906-4.6067-7.9906h-6.9673c1.4778 2.574 2.9566 5.1475 4.4364 7.7205l.1673.2657-1.123 1.9481h-13.719c-4.1526-7.1807-8.29985-14.3561-12.441708-21.5261l-.15562252-.2847 6.85289052-11.89126699h32.38814l-7.9847 13.84376699z" fill="#bbc3cf" fill-rule="evenodd"/></g></svg>

<svg width="155" height="44" viewBox="0 0 155 44" fill="none" xmlns="http://www.w3.org/2000/svg">
<path d="M52.4815 14.5484C52.4815 22.4029 60.9251 23.4633 60.9251 29.1185C60.9251 31.0822 60.0611 31.7891 58.6866 31.7891C57.312 31.7891 56.448 31.0822 56.448 29.1185V27.1549H52.3636V28.8436C52.3636 33.2422 54.5629 35.7556 58.8044 35.7556C63.0458 35.7556 65.2451 33.2422 65.2451 28.8436C65.2451 20.9891 56.8015 19.9287 56.8015 14.2734C56.8015 12.3098 57.5869 11.5636 58.9615 11.5636C60.336 11.5636 61.1215 12.3098 61.1215 14.2734V15.4124H65.2058V14.5484C65.2058 10.1498 63.0458 7.63635 58.8436 7.63635C54.6415 7.63635 52.4815 10.1498 52.4815 14.5484Z" fill="#BBC3CF"/>
<path d="M71.4968 35.4414H75.8168V26.3302L81.2757 7.95053H77.1521L73.8532 20.4785L70.5543 7.95053H66.0379L71.4968 26.3302V35.4414Z" fill="#BBC3CF"/>
<path d="M88.9922 7.95053H82.9835V35.4414H86.7537V16.0014L89.974 35.4414H94.0584L97.0431 15.7265V35.4414H101.127V7.95053H95.1188L92.1733 27.4691L88.9922 7.95053Z" fill="#BBC3CF"/>
<path d="M103.013 11.8778H107.53V35.4414H111.85V11.8778H116.366V7.95053H103.013V11.8778Z" fill="#BBC3CF"/>
<path d="M131.7 35.4414C131.268 34.4204 131.229 33.4385 131.229 32.1033V27.8618C131.229 24.9949 130.522 22.9134 128.362 22.0102C130.286 21.1069 131.189 19.2611 131.189 16.4334V14.2734C131.189 10.032 129.265 7.95053 124.788 7.95053H118.269V35.4414H122.589V24.2487H124.081C126.045 24.2487 126.909 25.1913 126.909 27.744V32.064C126.909 34.3025 127.066 34.7345 127.301 35.4414H131.7ZM124.67 11.8778C126.202 11.8778 126.869 12.7418 126.869 14.7054V17.4153C126.869 19.6145 125.887 20.3214 124.277 20.3214H122.589V11.8778H124.67Z" fill="#BBC3CF"/>
<path d="M134.07 35.4414H138.39V7.95053H134.07V35.4414Z" fill="#BBC3CF"/>
<path d="M149.992 25.1913V29.1185C149.992 31.0822 149.128 31.7891 147.753 31.7891C146.379 31.7891 145.515 31.0822 145.515 29.1185V14.2734C145.515 12.3098 146.379 11.5636 147.753 11.5636C149.128 11.5636 149.992 12.3098 149.992 14.2734V17.2189H154.076V14.5484C154.076 10.1498 151.877 7.63635 147.636 7.63635C143.394 7.63635 141.195 10.1498 141.195 14.5484V28.8436C141.195 33.2422 143.394 35.7556 147.636 35.7556C151.877 35.7556 154.076 33.2422 154.076 28.8436V25.1913H149.992Z" fill="#BBC3CF"/>
<g clip-path="url(#clip0_2614_13083)">
<path fill-rule="evenodd" clip-rule="evenodd" d="M14.8435 13.8351L12.4829 17.9163L10.2367 14.02L12.5856 9.93885H28.9926L32.4762 3.89636H9.09895L4.49222 11.887C7.94801 17.857 11.3985 23.8271 14.8435 29.7972H21.8109C20.0609 26.7681 18.312 23.7395 16.564 20.7114L16.0796 19.8731H32.0476L38.9151 31.7644L32.0476 43.6365H6.85286L0.0558099 31.6499L3.46903 25.7219L5.72981 29.6166L4.50692 31.7497L9.11364 39.7403H29.7882L34.4096 31.7497L29.8029 23.7591H22.8356C24.3134 26.3331 25.7922 28.9066 27.272 31.4796L27.4393 31.7453L26.3163 33.6934H12.5973C8.4447 26.5127 4.29745 19.3373 0.155592 12.1673L-3.05176e-05 11.8826L6.85286 -0.00866699H39.241L31.2563 13.8351H14.8435Z" fill="#BBC3CF"/>
</g>
<defs>
<clipPath id="clip0_2614_13083">
<rect width="39.2425" height="43.6364" fill="white"/>
</clipPath>
</defs>
</svg>
